X: 10116
T: WILLIES HORNPIPE
C: Bob McQuillen 11 Nov 93
B: Bob's Note Book 10 #116
%R: hornpipe, reel
Z: 2020 John Chambers <jc:trillian.mit.edu>
M: C
L: 1/8
K: G
Bc \
| dedc BGAB | c2E2 E2FG | ABcB ABAG | F2D2 D2dc |\
| Bdga gdBG | EGce dBGE | FAGE DFAc | B2G2 G2  :|
|: Bc \
| dBdg bagf | g2d2 d2dc | Bdge dBed | c2A2 A2dc |\
| BGBd g2fg | egec A2AB | cBAG FAdc | B2G2 G2  :|
%%begintext align
%% Willie Miller lives in
%% East Alstead, NH, where he is the son of Kathy and Randy
%% Miller. They are an awfully nice family, with strong ties
%% to the music. Randy plays fiddle and Kathy calls, and now
%% Willie, you have your own tune to dance to. Hope you like it!
%%endtext

%%sep 1 1 500

%%sep 1 1 500

